car-battery.svg

<svg fill="currentColor" viewBox="0 0 24 24"><path d="M4 3v3H1v14h22V6h-3V3h-6v3h-4V3zM3 8h18v10H3zm12 2v2h-2v2h2v2h2v-2h2v-2h-2v-2zM5 12v2h6v-2z"/></svg>

<svg  viewBox="0 0 24 24" fill="currentColor"><path  d="M4,3V6H1V20H23V6H20V3H14V6H10V3H4M3,8H21V18H3V8M15,10V12H13V14H15V16H17V14H19V12H17V10H15M5,12V14H11V12H5Z"/></svg>
